X:1
T:Chinese Breakdown [3]
M:2/4
L:1/8
K:A
afec|A2 AA|FAAF|A2 AA|EAAF|A2 AA|
cecA|B4|eeec|A2 AA|FAAF|A2 AA|
ceee|fecA|c2BB|A4::GBBB|Beee|
fBBB|g2e2|BBBB Baaa|1 gfgf|d4:|2 gfBf|e4|f4||



